!!!OTL: 538a. Verzeihung.
!!!ARE: Europa, Mitteleuropa, Deutschland, Uckermark, Gramzow
!!!SCT: E0538
!!!TXL: @@DE
!!!YEM: Copyright 1995, estate of Helmut Schaffrath.
**kern	**text
*ICvox	*
*M3/4	*
*k[]	*
*C:	*
!LO:TX:a:t=Ziemlich bewegt.	!
!LO:TX:a:t=Aus der Uckermark (Gramʒow).	!
{8eL	Es
8fJ	.
=1	=1
4g	leuch-
8eL	-tet
8gJ	.
8ccL	ſchon
8ddJ	.
=2	=2
4ee	wie-
4g}	-der
{8aL	der
8bJ	.
=3	=3
4.cc	Him-
8dd	-mel
!LO:TUP:a	!
(12ccL	ſo
12bJ	.
12a)	.
=4	=4
2g}	blau
{8eL	Die
8fJ	.
=5	=5
4g	Blümlein
4cc	.
8bL	ver-
8aJ	.
=6	=6
4g	-wel-
8eL	-ken
8gJ}	.
{8cc	bei
8e	dem
=7	=7
4.g	lieb-
8f	-li-
8dL	-chem
8eJ	.
=8	=8
2c}	Thau.
{8eL	Die
8fJ	.
=9	=9
4g	Blümlein
4cc	.
8bL	ver-
8aJ	.
=10	=10
4g	-wel-
8eL	-ken
8gJ}	.
{8cc	bei
8e	dem
=11	=11
4.g	lieb-
8f	-li-
8dL	-chem
8eJ	.
=12	=12
2c}	Thau.
==	==
!!!AGN: Liebes - Lied
!!!ONB: ESAC (Essen Associative Code) Database: ERK1
!!!AMT: simple triple
!!!AIN: vox
!!!EED: Helmut Schaffrath
!!!EEV: 1.0
!!!GTL: Liebeslieder [Neuere (aus dem 18. bis 19. Jahrh.) - Liebeslust]
!!!URL-scan: https://rosdok.uni-rostock.de/mcrviewer/recordIdentifier/rosdok_ppn745177662/iview2/phys_0369.iview2?x=-128.77276441889308&y=414.3654682987835&scale=0.5870222003877485&rotation=0&layout=singlePageLayout
!!!ENC: Anna Maria Matuszewska
!!!EEV: 2024/10/12
*-	*-
